img/logo.svg

<?xml version="1.0" encoding="UTF-8"?>
<svg width="216px" height="216px" viewBox="0 0 216 216" version="1.1" xmlns="http://www.w3.org/2000/svg" xmlns:xlink="http://www.w3.org/1999/xlink">
    <!-- Generator: Sketch 52.5 (67469) - http://www.bohemiancoding.com/sketch -->
    <title>logo</title>
    <desc>Created with Sketch.</desc>
    <g id="logo" stroke="none" stroke-width="1" fill="none" fill-rule="evenodd">
        <path d="M184.928932,0 L168.467077,16.4618549 C166.508901,15.5247608 164.315733,15 162,15 C153.715729,15 147,21.7157288 147,30 C147,38.2842712 153.715729,45 162,45 C170.284271,45 177,38.2842712 177,30 C177,27.6842673 176.475239,25.4910991 175.538145,23.5329227 L199.071068,2.66453526e-15 L216,1.42108547e-14 L216,216 L0,216 L0,55 L33,55 C34.3260824,55 35.597852,54.4732158 36.5355339,53.5355339 L46.8704548,43.200613 C48.9910464,44.3483438 51.419422,45 54,45 C62.2842712,45 69,38.2842712 69,30 C69,21.7157288 62.2842712,15 54,15 C45.7157288,15 39,21.7157288 39,30 C39,32.0471197 39.4100823,33.9984595 40.1525798,35.7763524 L30.9289322,45 L1.55256674e-16,45 L0,1.42108547e-14 L184.928932,1.42108547e-14 Z M100.870455,43.200613 C102.991046,44.3483438 105.419422,45 108,45 C116.284271,45 123,38.2842712 123,30 C123,21.7157288 116.284271,15 108,15 C99.7157288,15 93,21.7157288 93,30 C93,32.0471197 93.4100823,33.9984595 94.1525798,35.7763524 L61.7651553,68.1637769 C59.5000057,66.7905547 56.8423248,66 54,66 C45.7157288,66 39,72.7157288 39,81 C39,89.2842712 45.7157288,96 54,96 C62.2842712,96 69,89.2842712 69,81 C69,79.2260199 68.6920487,77.5239658 68.1266883,75.9443795 L100.870455,43.200613 Z M103.702,197 L128.128,197 L110.9,169.978 C115.698691,167.460654 119.356654,163.940356 121.874,159.417 C124.391346,154.893644 125.65,149.524698 125.65,143.31 C125.65,134.105954 122.64103,126.967025 116.623,121.893 C110.60497,116.818975 102.128721,114.282 91.194,114.282 L54.024,114.282 L54.024,197 L75.618,197 L75.618,174.108 L91.666,174.108 L103.702,197 Z M75.618,156.88 L75.618,131.51 L91.312,131.51 C95.7173554,131.51 99.1196547,132.591656 101.519,134.755 C103.918345,136.918344 105.118,140.00598 105.118,144.018 C105.118,148.187354 103.918345,151.373322 101.519,153.576 C99.1196547,155.778678 95.7173554,156.88 91.312,156.88 L75.618,156.88 Z M139.756,114.282 L139.756,197 L206.19,197 L206.19,179.772 L161.35,179.772 L161.35,164.196 L200.762,164.078 L200.762,146.968 L161.35,146.968 L161.35,131.51 L205.01,131.51 L205.01,114.282 L139.756,114.282 Z M54,34 C51.790861,34 50,32.209139 50,30 C50,27.790861 51.790861,26 54,26 C56.209139,26 58,27.790861 58,30 C58,32.209139 56.209139,34 54,34 Z M108,34 C105.790861,34 104,32.209139 104,30 C104,27.790861 105.790861,26 108,26 C110.209139,26 112,27.790861 112,30 C112,32.209139 110.209139,34 108,34 Z M54,85 C51.790861,85 50,83.209139 50,81 C50,78.790861 51.790861,77 54,77 C56.209139,77 58,78.790861 58,81 C58,83.209139 56.209139,85 54,85 Z M162,34 C159.790861,34 158,32.209139 158,30 C158,27.790861 159.790861,26 162,26 C164.209139,26 166,27.790861 166,30 C166,32.209139 164.209139,34 162,34 Z" id="Combined-Shape-Copy" fill="#444444"></path>
    </g>
</svg>

<svg width="216" height="216" viewBox="0 0 216 216" xmlns="http://www.w3.org/2000/svg"><path d="M184.929 0l-16.462 16.462A14.941 14.941 0 0 0 162 15c-8.284 0-15 6.716-15 15 0 8.284 6.716 15 15 15 8.284 0 15-6.716 15-15a14.94 14.94 0 0 0-1.462-6.467L199.071 0H216v216H0V55h33a5 5 0 0 0 3.536-1.464L46.87 43.2A14.933 14.933 0 0 0 54 45c8.284 0 15-6.716 15-15 0-8.284-6.716-15-15-15-8.284 0-15 6.716-15 15 0 2.047.41 3.998 1.153 5.776L30.929 45H0V0h184.929zM100.87 43.2A14.933 14.933 0 0 0 108 45c8.284 0 15-6.716 15-15 0-8.284-6.716-15-15-15-8.284 0-15 6.716-15 15 0 2.047.41 3.998 1.153 5.776L61.765 68.164A14.93 14.93 0 0 0 54 66c-8.284 0-15 6.716-15 15 0 8.284 6.716 15 15 15 8.284 0 15-6.716 15-15 0-1.774-.308-3.476-.873-5.056l32.743-32.743zm2.832 153.8h24.426L110.9 169.978c4.799-2.517 8.457-6.038 10.974-10.561 2.517-4.523 3.776-9.892 3.776-16.107 0-9.204-3.009-16.343-9.027-21.417-6.018-5.074-14.494-7.611-25.429-7.611h-37.17V197h21.594v-22.892h16.048L103.702 197zm-28.084-40.12v-25.37h15.694c4.405 0 7.808 1.082 10.207 3.245 2.4 2.163 3.599 5.251 3.599 9.263 0 4.17-1.2 7.355-3.599 9.558-2.4 2.203-5.802 3.304-10.207 3.304H75.618zm64.138-42.598V197h66.434v-17.228h-44.84v-15.576l39.412-.118v-17.11H161.35V131.51h43.66v-17.228h-65.254zM54 34a4 4 0 1 1 0-8 4 4 0 0 1 0 8zm54 0a4 4 0 1 1 0-8 4 4 0 0 1 0 8zM54 85a4 4 0 1 1 0-8 4 4 0 0 1 0 8zm108-51a4 4 0 1 1 0-8 4 4 0 0 1 0 8z" fill="#444" fill-rule="evenodd"/></svg>
